images/Group 237.svg

<svg width="374" height="234" viewBox="0 0 374 234" fill="none" xmlns="http://www.w3.org/2000/svg">
<g filter="url(#filter0_d_59_24)">
<rect x="4" width="366" height="226" fill="black"/>
</g>
<path d="M4 0H370V29H4V0Z" fill="#C4C4C4"/>
<path d="M56.6 16C56.6 21.5228 52.3019 26 47 26C41.6981 26 37.4 21.5228 37.4 16C37.4 10.4772 41.6981 6 47 6C52.3019 6 56.6 10.4772 56.6 16Z" fill="white"/>
<path d="M79 16C79 21.5228 74.7019 26 69.4 26C64.0981 26 59.8 21.5228 59.8 16C59.8 10.4772 64.0981 6 69.4 6C74.7019 6 79 10.4772 79 16Z" fill="white"/>
<path d="M34.2 16C34.2 21.5228 29.9019 26 24.6 26C19.2981 26 15 21.5228 15 16C15 10.4772 19.2981 6 24.6 6C29.9019 6 34.2 10.4772 34.2 16Z" fill="#FF029C"/>
<path d="M76 18.0706L72.0752 18.097L72.5159 21.6957L69.7066 19.1687L67.2553 22L67.214 18.3749L63.3167 18.785L66.0572 16.1918L63 13.9294L66.9248 13.903L66.4841 10.2911L69.2934 12.8313L71.7447 10L71.7722 13.6251L75.6833 13.215L72.929 15.8082L76 18.0706Z" fill="black"/>
<circle cx="47" cy="16" r="4" fill="black"/>
<path d="M91.9362 8.25602V15.12H98.3682V8.25602H100.624V24H98.3682V17.16H91.9362V24H89.6802V8.25602H91.9362Z" fill="#FF029C"/>
<path d="M108.849 24.288C107.329 24.288 106.113 23.848 105.201 22.968C104.289 22.088 103.833 20.92 103.833 19.464V16.656C103.833 15.184 104.289 14.008 105.201 13.128C106.113 12.248 107.329 11.808 108.849 11.808C110.385 11.808 111.609 12.248 112.521 13.128C113.449 14.008 113.913 15.184 113.913 16.656V19.464C113.913 20.92 113.449 22.088 112.521 22.968C111.609 23.848 110.385 24.288 108.849 24.288ZM108.873 22.248C109.753 22.248 110.449 21.992 110.961 21.48C111.489 20.968 111.753 20.28 111.753 19.416V16.728C111.753 15.832 111.497 15.128 110.985 14.616C110.473 14.104 109.769 13.848 108.873 13.848C107.993 13.848 107.289 14.104 106.761 14.616C106.249 15.128 105.993 15.832 105.993 16.728V19.416C105.993 20.296 106.249 20.992 106.761 21.504C107.289 22 107.993 22.248 108.873 22.248Z" fill="#FF029C"/>
<path d="M129.383 11.808C130.775 11.808 131.863 12.216 132.647 13.032C133.447 13.848 133.847 14.984 133.847 16.44V24H131.687V16.608C131.687 15.76 131.447 15.088 130.967 14.592C130.503 14.096 129.879 13.848 129.095 13.848C128.535 13.848 128.015 13.976 127.535 14.232C127.055 14.488 126.671 14.84 126.383 15.288C126.447 15.608 126.479 15.992 126.479 16.44V24H124.319V16.608C124.319 15.76 124.079 15.088 123.599 14.592C123.135 14.096 122.511 13.848 121.727 13.848C121.183 13.848 120.679 13.968 120.215 14.208C119.767 14.448 119.399 14.776 119.111 15.192V24H116.951V12.096H118.895L118.967 13.032C119.815 12.216 120.895 11.808 122.207 11.808C122.943 11.808 123.607 11.952 124.199 12.24C124.791 12.512 125.271 12.912 125.639 13.44C126.071 12.912 126.599 12.512 127.223 12.24C127.863 11.952 128.583 11.808 129.383 11.808Z" fill="#FF029C"/>
<path d="M138.916 18.84V19.416C138.916 20.312 139.172 21.016 139.684 21.528C140.212 22.024 140.932 22.272 141.844 22.272C142.612 22.272 143.252 22.08 143.764 21.696C144.292 21.312 144.564 20.84 144.58 20.28H146.74C146.676 21.464 146.196 22.432 145.3 23.184C144.404 23.92 143.252 24.288 141.844 24.288C140.308 24.288 139.076 23.856 138.148 22.992C137.22 22.112 136.756 20.944 136.756 19.488V16.632C136.756 15.672 136.964 14.832 137.38 14.112C137.796 13.376 138.388 12.808 139.156 12.408C139.924 12.008 140.804 11.808 141.796 11.808C143.3 11.808 144.5 12.248 145.396 13.128C146.292 14.008 146.74 15.168 146.74 16.608V18.84H138.916ZM141.796 13.824C140.916 13.824 140.212 14.088 139.684 14.616C139.172 15.128 138.916 15.824 138.916 16.704V17.04H144.58V16.704C144.58 15.824 144.324 15.128 143.812 14.616C143.316 14.088 142.644 13.824 141.796 13.824Z" fill="#FF029C"/>
<path d="M163.299 8.25602C164.819 8.25602 166.019 8.65602 166.899 9.45602C167.779 10.24 168.219 11.32 168.219 12.696V13.056C168.219 14.432 167.779 15.52 166.899 16.32C166.019 17.104 164.819 17.496 163.299 17.496H159.291V24H157.035V8.25602H163.299ZM163.251 15.48C164.147 15.48 164.827 15.272 165.291 14.856C165.755 14.44 165.987 13.84 165.987 13.056V12.696C165.987 11.928 165.747 11.336 165.267 10.92C164.803 10.504 164.131 10.296 163.251 10.296H159.291V15.48H163.251Z" fill="#FF029C"/>
<path d="M180.377 12.096V24H178.433L178.337 22.92C177.473 23.832 176.353 24.288 174.977 24.288C173.633 24.288 172.569 23.872 171.785 23.04C171.001 22.208 170.609 21.072 170.609 19.632V12.096H172.793V19.464C172.793 20.312 173.025 20.992 173.489 21.504C173.953 22 174.585 22.248 175.385 22.248C176.009 22.248 176.569 22.112 177.065 21.84C177.561 21.552 177.945 21.168 178.217 20.688V12.096H180.377Z" fill="#FF029C"/>
<path d="M189.309 11.808C190.653 11.808 191.717 12.224 192.501 13.056C193.285 13.888 193.677 15.016 193.677 16.44V24H191.493V16.608C191.493 15.76 191.253 15.088 190.773 14.592C190.309 14.096 189.685 13.848 188.901 13.848C188.277 13.848 187.717 13.992 187.221 14.28C186.725 14.552 186.341 14.928 186.069 15.408V24H183.909V12.096H185.853L185.949 13.176C186.813 12.264 187.933 11.808 189.309 11.808Z" fill="#FF029C"/>
<path d="M207.385 23.664V24H205.081L201.433 18.744L199.273 21.096V24H197.113V7.29602H199.273V18.024L204.817 12.12H207.193V12.456L202.873 17.16L207.385 23.664Z" fill="#FF029C"/>
<defs>
<filter id="filter0_d_59_24" x="0" y="0" width="374" height="234" filterUnits="userSpaceOnUse" color-interpolation-filters="sRGB">
<feFlood flood-opacity="0" result="BackgroundImageFix"/>
<feColorMatrix in="SourceAlpha" type="matrix" values="0 0 0 0 0 0 0 0 0 0 0 0 0 0 0 0 0 0 127 0" result="hardAlpha"/>
<feOffset dy="4"/>
<feGaussianBlur stdDeviation="2"/>
<feComposite in2="hardAlpha" operator="out"/>
<feColorMatrix type="matrix" values="0 0 0 0 0 0 0 0 0 0 0 0 0 0 0 0 0 0 0.25 0"/>
<feBlend mode="normal" in2="BackgroundImageFix" result="effect1_dropShadow_59_24"/>
<feBlend mode="normal" in="SourceGraphic" in2="effect1_dropShadow_59_24" result="shape"/>
</filter>
</defs>
</svg>

<?xml version="1.0" encoding="utf-8"?>
<!-- Generator: Adobe Illustrator 26.0.2, SVG Export Plug-In . SVG Version: 6.00 Build 0)  -->
<svg version="1.1" id="Layer_1" xmlns="http://www.w3.org/2000/svg" xmlns:xlink="http://www.w3.org/1999/xlink" x="0px" y="0px"
	 viewBox="0 0 374 234" style="enable-background:new 0 0 374 234;" xml:space="preserve">
<style type="text/css">
	.st0{fill:#C4C4C4;}
	.st1{fill:#FFFFFF;}
	.st2{fill:#FF029C;}
</style>
<g>
	<rect x="4" width="366" height="226"/>
</g>
<path class="st0" d="M4,0h366v29H4V0z"/>
<path class="st1" d="M56.6,16c0,5.5-4.3,10-9.6,10s-9.6-4.5-9.6-10S41.7,6,47,6S56.6,10.5,56.6,16z"/>
<path class="st1" d="M79,16c0,5.5-4.3,10-9.6,10c-5.3,0-9.6-4.5-9.6-10s4.3-10,9.6-10S79,10.5,79,16z"/>
<path class="st2" d="M34.2,16c0,5.5-4.3,10-9.6,10S15,21.5,15,16s4.3-10,9.6-10S34.2,10.5,34.2,16z"/>
<path d="M76,18.1h-3.9l0.4,3.6l-2.8-2.5L67.3,22v-3.6l-3.9,0.4l2.7-2.6L63,13.9h3.9l-0.4-3.6l2.8,2.5l2.5-2.8v3.6l3.9-0.4l-2.8,2.6
	L76,18.1z"/>
<circle cx="47" cy="16" r="4"/>
<path class="st2" d="M91.9,8.3v6.9h6.4V8.3h2.3V24h-2.3v-6.8h-6.4V24h-2.3V8.3H91.9z"/>
<path class="st2" d="M108.8,24.3c-1.5,0-2.7-0.4-3.6-1.3s-1.4-2-1.4-3.5v-2.8c0-1.5,0.5-2.6,1.4-3.5s2.1-1.3,3.6-1.3
	s2.8,0.4,3.7,1.3c0.9,0.9,1.4,2.1,1.4,3.5v2.8c0,1.5-0.5,2.6-1.4,3.5C111.6,23.8,110.4,24.3,108.8,24.3z M108.9,22.2
	c0.9,0,1.6-0.3,2.1-0.8s0.8-1.2,0.8-2.1v-2.7c0-0.9-0.3-1.6-0.8-2.1s-1.2-0.8-2.1-0.8s-1.6,0.3-2.1,0.8s-0.8,1.2-0.8,2.1v2.7
	c0,0.9,0.3,1.6,0.8,2.1C107.3,22,108,22.2,108.9,22.2z"/>
<path class="st2" d="M129.4,11.8c1.4,0,2.5,0.4,3.3,1.2s1.2,2,1.2,3.4V24h-2.2v-7.4c0-0.8-0.2-1.5-0.7-2s-1.1-0.7-1.9-0.7
	c-0.6,0-1.1,0.1-1.6,0.4c-0.5,0.3-0.9,0.6-1.2,1.1c0.1,0.3,0.1,0.7,0.1,1.2V24h-2.2v-7.4c0-0.8-0.2-1.5-0.7-2s-1.1-0.7-1.9-0.7
	c-0.5,0-1,0.1-1.5,0.4c-0.4,0.2-0.8,0.6-1.1,1V24h-2V12.1h1.9L119,13c0.8-0.8,1.9-1.2,3.2-1.2c0.7,0,1.4,0.1,2,0.4
	c0.6,0.3,1.1,0.7,1.4,1.2c0.4-0.5,1-0.9,1.6-1.2C127.9,12,128.6,11.8,129.4,11.8z"/>
<path class="st2" d="M138.9,18.8v0.6c0,0.9,0.3,1.6,0.8,2.1s1.2,0.7,2.2,0.7c0.8,0,1.4-0.2,1.9-0.6s0.8-0.9,0.8-1.4h2.2
	c-0.1,1.2-0.5,2.2-1.4,2.9c-0.9,0.7-2,1.1-3.5,1.1s-2.8-0.4-3.7-1.3s-1.4-2-1.4-3.5v-2.9c0-1,0.2-1.8,0.6-2.5c0.4-0.7,1-1.3,1.8-1.7
	s1.6-0.6,2.6-0.6c1.5,0,2.7,0.4,3.6,1.3c0.9,0.9,1.3,2,1.3,3.5v2.2L138.9,18.8L138.9,18.8z M141.8,13.8c-0.9,0-1.6,0.3-2.1,0.8
	s-0.8,1.2-0.8,2.1V17h5.7v-0.3c0-0.9-0.3-1.6-0.8-2.1C143.3,14.1,142.6,13.8,141.8,13.8z"/>
<path class="st2" d="M163.3,8.3c1.5,0,2.7,0.4,3.6,1.2c0.9,0.8,1.3,1.9,1.3,3.2v0.4c0,1.4-0.4,2.5-1.3,3.3c-0.9,0.8-2.1,1.2-3.6,1.2
	h-4V24H157V8.3H163.3z M163.3,15.5c0.9,0,1.6-0.2,2-0.6s0.7-1,0.7-1.8v-0.4c0-0.8-0.2-1.4-0.7-1.8c-0.5-0.4-1.1-0.6-2-0.6h-4v5.2
	C159.3,15.5,163.3,15.5,163.3,15.5z"/>
<path class="st2" d="M180.4,12.1V24h-1.9l-0.1-1.1c-0.9,0.9-2,1.4-3.4,1.4c-1.3,0-2.4-0.4-3.2-1.2c-0.8-0.8-1.2-2-1.2-3.4v-7.5h2.2
	v7.4c0,0.8,0.2,1.5,0.7,2s1.1,0.7,1.9,0.7c0.6,0,1.2-0.1,1.7-0.4s0.9-0.7,1.2-1.2v-8.6C178.3,12.1,180.4,12.1,180.4,12.1z"/>
<path class="st2" d="M189.3,11.8c1.3,0,2.4,0.4,3.2,1.2s1.2,2,1.2,3.4V24h-2.2v-7.4c0-0.8-0.2-1.5-0.7-2s-1.1-0.7-1.9-0.7
	c-0.6,0-1.2,0.1-1.7,0.4c-0.5,0.3-0.9,0.6-1.2,1.1V24h-2.2V12.1h1.9l0.1,1.1C186.8,12.3,187.9,11.8,189.3,11.8z"/>
<path class="st2" d="M207.4,23.7V24h-2.3l-3.6-5.3l-2.2,2.4V24h-2.2V7.3h2.2V18l5.5-5.9h2.4v0.3l-4.3,4.7L207.4,23.7z"/>
</svg>
